source/img/svg/logo-visa.svg

<svg viewBox="0 0 87 28" fill="none" xmlns="http://www.w3.org/2000/svg">
<path d="M86.6815 27.5507C84.5229 27.5507 82.3482 27.5507 80.1576 27.5507C79.9178 26.3995 79.6619 25.2802 79.454 24.1449C79.3741 23.6812 79.2142 23.4893 78.7025 23.5053C76.0802 23.5373 73.4738 23.5373 70.8514 23.5053C70.4517 23.5053 70.2918 23.6332 70.1799 24.001C69.8121 25.0723 69.4283 26.1436 69.0286 27.215C68.9806 27.3589 68.7887 27.5507 68.6608 27.5507C66.3103 27.5667 63.9438 27.5667 61.5133 27.5667C61.961 26.4954 62.3768 25.488 62.7925 24.4647C65.8306 17.2052 68.8687 9.96179 71.9228 2.70234C72.5784 1.13532 73.5697 0.479736 75.2647 0.479736C77.1515 0.479736 79.0543 0.479736 80.9891 0.479736C81.181 1.35918 81.3728 2.23863 81.5487 3.10209C83.0518 10.2656 84.5389 17.4451 86.0419 24.6086C86.2338 25.52 86.4576 26.4314 86.6655 27.3589C86.6815 27.4228 86.6815 27.4868 86.6815 27.5507ZM78.1429 17.9248C77.4553 14.5989 76.7677 11.3049 76.0802 8.01101C76.0482 8.01101 76.0162 7.99502 76.0002 7.99502C74.801 11.289 73.6177 14.5829 72.4025 17.9248C74.3373 17.9248 76.2081 17.9248 78.1429 17.9248Z" fill="url(#paint0_linear)"/>
<path d="M58.2672 0C59.1306 0.1599 59.9941 0.287819 60.8416 0.495689C61.6251 0.671579 62.3766 0.927418 63.2081 1.16727C62.7923 3.11804 62.3926 5.02085 61.9928 6.87569C60.9055 6.55589 59.8662 6.18812 58.7948 5.94827C57.3238 5.62847 55.8207 5.50055 54.3656 5.91629C53.774 6.07619 53.1664 6.39599 52.7027 6.79574C51.9032 7.4833 51.8872 8.47468 52.6547 9.19423C53.1824 9.68992 53.806 10.1057 54.4456 10.4734C55.8687 11.3369 57.3717 12.0724 58.7629 12.9998C60.3938 14.0872 61.5931 15.5582 61.8329 17.573C62.2806 21.1227 60.9695 23.921 57.9793 25.9037C56.1085 27.151 53.9819 27.7106 51.7752 27.9025C48.6892 28.1903 45.6671 27.8385 42.7089 26.8791C42.517 26.8152 42.3252 26.7352 42.1333 26.6553C42.0693 26.6393 42.0214 26.5913 41.9414 26.5274C42.3571 24.5766 42.7729 22.6258 43.2046 20.6111C43.7003 20.8349 44.18 21.0428 44.6597 21.2507C46.9623 22.1781 49.3448 22.6098 51.8072 22.1461C52.4468 22.0182 53.1024 21.7464 53.6461 21.3786C54.8293 20.5951 54.9413 19.108 53.8699 18.1646C53.1664 17.557 52.3189 17.1093 51.5034 16.6136C50.2402 15.8461 48.913 15.1905 47.7138 14.343C46.1947 13.2397 45.0914 11.7846 44.8676 9.83383C44.5478 6.92366 45.6351 4.55714 47.8737 2.71829C49.8245 1.1193 52.127 0.399749 54.5895 0.11193C54.7334 0.0959396 54.8613 0.04797 54.9892 0.01599C56.0765 6.07586e-08 57.1639 0 58.2672 0Z" fill="url(#paint1_linear)"/>
<path d="M32.8914 0.495374C32.5236 1.37482 32.1718 2.22229 31.82 3.05377C28.4621 11.0647 25.1042 19.0757 21.7623 27.0867C21.6024 27.4705 21.4106 27.5664 21.0268 27.5664C18.9001 27.5504 16.7895 27.5344 14.6628 27.5664C14.2151 27.5664 14.0712 27.4225 13.9592 27.0067C12.1684 20.0031 10.3295 13.0155 8.55463 6.01191C8.23483 4.73272 7.57924 3.85327 6.34802 3.30961C4.38125 2.44615 2.35052 1.83853 0.27183 1.34284C0.17589 1.32685 0.0959398 1.29487 0 1.27888C0.01599 0.463394 0.0159902 0.463394 0.783509 0.463394C4.49318 0.463394 8.20285 0.463394 11.9125 0.463394C13.6714 0.463394 14.9346 1.48675 15.2704 3.22966C16.2138 8.15457 17.1253 13.0955 18.0687 18.0204C18.1166 18.2283 18.1486 18.4521 18.2126 18.7559C18.3085 18.58 18.3725 18.4681 18.4204 18.3562C20.723 12.5358 23.0255 6.69948 25.3121 0.879133C25.44 0.559334 25.5839 0.447404 25.9357 0.463394C28.0944 0.479384 30.237 0.479384 32.3957 0.479384C32.5556 0.479384 32.6995 0.495374 32.8914 0.495374Z" fill="url(#paint2_linear)"/>
<path d="M30.093 27.5667C32.0277 18.5164 33.9465 9.53006 35.8813 0.511719C38.2319 0.511719 40.5504 0.511719 42.9009 0.511719C42.6131 1.88686 42.3253 3.23001 42.0375 4.57317C40.4385 12.0245 38.8555 19.4598 37.2725 26.9112C37.1605 27.4228 36.9846 27.5987 36.441 27.5827C34.5222 27.5508 32.5874 27.5667 30.6686 27.5667C30.4927 27.5667 30.3168 27.5667 30.093 27.5667Z" fill="url(#paint3_linear)"/>
<defs>
<linearGradient id="paint0_linear" x1="4.87771" y1="14.5137" x2="86.2261" y2="13.9785" gradientUnits="userSpaceOnUse">
<stop stop-color="#262860"/>
<stop offset="1" stop-color="#3D429B"/>
</linearGradient>
<linearGradient id="paint1_linear" x1="4.87616" y1="14.3096" x2="86.2244" y2="13.7744" gradientUnits="userSpaceOnUse">
<stop stop-color="#262860"/>
<stop offset="1" stop-color="#3D429B"/>
</linearGradient>
<linearGradient id="paint2_linear" x1="4.87478" y1="14.0643" x2="86.2231" y2="13.5291" gradientUnits="userSpaceOnUse">
<stop stop-color="#262860"/>
<stop offset="1" stop-color="#3D429B"/>
</linearGradient>
<linearGradient id="paint3_linear" x1="4.8758" y1="14.2489" x2="86.2242" y2="13.7137" gradientUnits="userSpaceOnUse">
<stop stop-color="#262860"/>
<stop offset="1" stop-color="#3D429B"/>
</linearGradient>
</defs>
</svg>

<svg width="87" height="28" fill="none" xmlns="http://www.w3.org/2000/svg"><path d="M86.681 27.55h-6.523c-.24-1.15-.496-2.27-.704-3.405-.08-.464-.24-.656-.751-.64-2.623.032-5.23.032-7.852 0-.4 0-.56.128-.671.496a129.518 129.518 0 01-1.151 3.214c-.048.144-.24.336-.368.336-2.35.016-4.717.016-7.148.016.448-1.072.864-2.079 1.28-3.102 3.038-7.26 6.076-14.503 9.13-21.763C72.578 1.135 73.57.48 75.265.48h5.724c.192.88.384 1.759.56 2.622 1.503 7.164 2.99 14.343 4.493 21.507.192.911.416 1.822.623 2.75a.777.777 0 01.016.192zm-8.538-9.625c-.688-3.326-1.375-6.62-2.063-9.914-.032 0-.064-.016-.08-.016-1.199 3.294-2.382 6.588-3.597 9.93h5.74z" fill="url(#paint0_linear)"/><path d="M58.267 0c.864.16 1.727.288 2.575.496.783.176 1.535.431 2.366.671-.416 1.951-.815 3.854-1.215 5.709-1.087-.32-2.127-.688-3.198-.928-1.471-.32-2.974-.447-4.43-.032-.591.16-1.199.48-1.662.88-.8.687-.816 1.679-.048 2.398.527.496 1.151.912 1.79 1.28 1.424.863 2.927 1.598 4.318 2.526 1.63 1.087 2.83 2.558 3.07 4.573.448 3.55-.864 6.348-3.854 8.33-1.87 1.248-3.997 1.808-6.204 2-3.086.287-6.108-.064-9.066-1.024a8.54 8.54 0 01-.576-.224c-.064-.016-.112-.064-.192-.128.416-1.95.832-3.901 1.264-5.916.495.224.975.432 1.455.64 2.302.927 4.685 1.359 7.147.895a5.2 5.2 0 001.84-.767c1.182-.784 1.294-2.271.223-3.214-.704-.608-1.551-1.056-2.367-1.551-1.263-.768-2.59-1.424-3.79-2.271-1.518-1.103-2.622-2.558-2.845-4.51-.32-2.91.767-5.276 3.006-7.115C49.824 1.12 52.127.4 54.589.112c.144-.016.272-.064.4-.096A222.92 222.92 0 0158.267 0z" fill="url(#paint1_linear)"/><path d="M32.891.495c-.367.88-.72 1.727-1.071 2.559-3.358 8.01-6.716 16.022-10.058 24.033-.16.384-.351.48-.735.48a270.013 270.013 0 00-6.364 0c-.448 0-.592-.145-.704-.56-1.79-7.004-3.63-13.992-5.404-20.995-.32-1.28-.976-2.159-2.207-2.702C4.381 2.446 2.351 1.839.272 1.343.176 1.327.096 1.295 0 1.279.016.463.016.463.784.463h11.128c1.76 0 3.023 1.024 3.358 2.767.944 4.925 1.855 9.865 2.799 14.79.048.208.08.432.144.736.095-.176.16-.288.207-.4C20.723 12.536 23.025 6.7 25.312.88c.128-.32.272-.432.624-.416 2.158.016 4.301.016 6.46.016.16 0 .303.016.495.016z" fill="url(#paint2_linear)"/><path d="M30.093 27.567c1.935-9.05 3.854-18.037 5.788-27.055h7.02a862.86 862.86 0 01-.864 4.061c-1.599 7.451-3.181 14.887-4.764 22.338-.113.512-.288.688-.832.672-1.919-.032-3.854-.016-5.772-.016h-.576z" fill="url(#paint3_linear)"/><defs><linearGradient id="paint0_linear" x1="4.878" y1="14.514" x2="86.226" y2="13.979" gradientUnits="userSpaceOnUse"><stop stop-color="#262860"/><stop offset="1" stop-color="#3D429B"/></linearGradient><linearGradient id="paint1_linear" x1="4.876" y1="14.31" x2="86.224" y2="13.774" gradientUnits="userSpaceOnUse"><stop stop-color="#262860"/><stop offset="1" stop-color="#3D429B"/></linearGradient><linearGradient id="paint2_linear" x1="4.875" y1="14.064" x2="86.223" y2="13.529" gradientUnits="userSpaceOnUse"><stop stop-color="#262860"/><stop offset="1" stop-color="#3D429B"/></linearGradient><linearGradient id="paint3_linear" x1="4.876" y1="14.249" x2="86.224" y2="13.714" gradientUnits="userSpaceOnUse"><stop stop-color="#262860"/><stop offset="1" stop-color="#3D429B"/></linearGradient></defs></svg>
